<?xml version="1.0" encoding="UTF-8"?>
<map version="1.10" tiledversion="1.11.0" orientation="orthogonal" renderorder="right-down" width="100" height="100" tilewidth="32" tileheight="32" infinite="0" nextlayerid="10" nextobjectid="8">
 <editorsettings>
  <export target="../../../level1.csv" format="csv"/>
 </editorsettings>
 <tileset firstgid="1" source="leaf32.tsx"/>
 <tileset firstgid="97" source="all_entities_obstacles_player.tsx"/>
 <layer id="1" name="Terain" width="100" height="100" locked="1">
  <data encoding="csv">
26,26,26,26,26,26,26,26,26,26,26,26,26,26,26,26,26,26,26,26,26,26,26,26,26,26,26,26,26,26,26,26,26,26,26,26,26,26,26,26,26,26,26,26,26,26,26,26,26,26,26,26,26,26,26,26,26,26,26,26,26,26,26,26,26,26,26,26,26,26,26,26,26,26,26,26,26,26,26,26,26,26,26,26,26,26,26,26,26,26,26,26,26,26,26,26,26,26,26,26,
26,26,26,26,26,26,26,26,26,26,26,26,26,26,26,26,26,26,26,26,26,26,26,26,26,26,26,26,26,26,26,26,26,26,26,26,26,26,26,26,26,26,26,26,26,26,26,26,26,26,26,26,26,26,26,26,26,26,26,26,26,26,26,26,26,26,26,26,26,26,26,26,26,26,26,26,26,26,26,26,26,26,26,26,26,26,26,26,26,26,26,26,26,26,26,26,26,26,26,26,
26,26,26,26,26,26,26,26,26,26,26,26,26,26,26,26,26,26,26,26,26,7,26,26,7,7,26,26,7,26,7,7,26,26,26,26,26,26,26,7,7,7,7,26,26,26,26,26,26,26,26,26,26,26,26,26,26,26,26,26,26,26,26,26,26,26,26,26,26,26,26,26,26,26,26,26,26,26,26,26,26,26,26,26,26,26,26,26,26,26,26,26,26,26,26,26,26,26,26,26,
26,26,26,26,26,7,7,7,7,7,7,7,7,7,7,26,26,26,26,26,7,7,7,7,7,7,7,7,7,7,7,7,7,26,26,26,26,26,7,7,7,7,7,7,26,26,26,26,26,26,26,26,26,26,26,26,26,26,26,26,26,26,26,26,26,26,26,26,26,26,26,26,26,26,26,26,26,26,26,26,7,7,26,26,26,7,7,7,26,26,26,7,7,26,26,26,26,26,26,26,
26,26,26,26,7,7,7,7,7,7,7,7,7,7,7,7,26,26,26,7,7,7,7,7,7,7,7,7,7,7,7,7,7,7,26,26,26,7,7,7,7,7,7,7,7,7,7,7,7,7,7,7,7,7,7,7,7,26,26,26,26,26,26,26,26,26,26,26,26,26,26,26,26,26,26,26,26,7,7,7,7,7,7,7,7,7,7,7,7,7,7,7,7,7,7,26,26,26,26,26,
26,26,26,26,7,7,7,7,7,7,7,7,7,7,7,7,7,26,7,7,7,7,7,7,7,7,7,7,7,7,7,7,7,7,7,7,7,7,7,7,26,26,7,7,73,74,75,7,73,74,75,7,73,74,75,7,7,7,26,26,26,26,26,26,26,26,26,26,26,26,26,26,26,26,7,7,7,7,7,7,7,7,7,7,7,7,7,7,7,7,7,7,7,7,7,7,26,26,26,26,
26,26,26,26,7,7,7,7,7,7,7,7,7,7,7,7,7,7,7,7,7,7,7,7,86,7,7,7,7,7,7,26,7,7,7,7,7,7,26,26,26,7,7,7,7,7,7,7,7,7,7,7,7,7,7,7,7,7,7,26,26,26,26,26,26,26,26,26,26,26,7,7,7,7,7,7,7,7,7,7,7,7,7,7,7,7,7,7,7,7,7,7,7,7,7,7,26,26,26,26,
26,26,26,26,7,7,7,7,7,7,7,7,7,7,7,7,7,7,7,7,7,7,7,7,26,26,26,26,7,7,7,26,26,7,7,7,7,26,26,26,26,26,7,7,7,7,7,7,7,7,7,7,7,7,7,7,7,7,7,7,7,26,26,26,26,26,26,7,7,7,7,7,7,7,7,7,7,7,7,7,7,7,7,7,7,7,7,7,7,7,7,7,7,7,7,7,7,26,26,26,
26,26,26,26,26,7,7,7,7,7,7,7,7,7,7,7,7,7,7,7,7,26,26,5,50,50,50,7,7,7,6,26,26,26,26,26,26,26,26,26,26,26,26,26,7,7,7,7,7,7,7,7,7,7,7,7,7,7,7,7,7,7,7,26,26,7,7,7,7,7,7,7,7,7,7,7,7,7,7,7,7,7,7,7,7,7,7,7,7,7,7,7,7,7,7,7,7,26,26,26,
26,26,26,26,26,26,7,7,7,7,7,7,7,7,7,7,7,7,7,7,26,26,26,27,7,7,7,7,7,7,7,26,26,26,26,26,26,26,26,26,26,26,26,7,7,7,7,7,7,7,7,7,7,7,7,7,7,7,7,7,7,7,7,7,7,7,7,7,7,7,7,7,7,7,7,7,7,7,7,7,7,7,7,7,7,7,7,7,7,7,7,7,7,7,7,7,7,26,26,26,
26,26,26,26,26,26,26,7,7,7,7,7,7,7,7,7,7,7,7,7,26,26,26,7,7,7,7,7,7,7,7,7,26,26,26,26,26,26,26,26,26,7,7,7,7,7,7,7,7,7,7,7,7,7,7,7,7,7,26,26,7,7,7,7,7,7,7,7,7,7,7,7,7,7,7,7,7,7,7,7,7,7,7,7,7,7,7,26,7,7,7,7,7,7,7,7,26,26,26,26,
26,26,26,26,26,26,26,26,7,7,7,7,7,7,7,7,7,7,7,7,26,26,7,7,7,7,7,7,7,7,7,7,7,26,26,26,7,7,7,7,7,7,7,7,7,7,7,7,7,7,7,7,7,7,7,7,7,26,26,26,26,7,7,7,7,7,7,7,7,7,7,7,7,7,7,7,7,7,7,7,7,7,7,7,7,7,26,26,26,7,7,7,7,7,7,7,26,26,26,26,
26,26,26,26,26,26,26,26,26,26,26,7,7,26,26,7,7,7,7,7,26,26,7,7,7,7,53,54,7,7,7,7,7,7,7,7,7,7,7,7,7,7,7,26,26,26,7,7,7,7,7,7,7,7,7,7,26,26,26,26,26,26,7,7,7,26,26,26,26,26,26,26,7,7,7,7,7,7,7,7,7,7,7,7,26,26,26,26,26,26,7,7,7,7,7,7,26,26,26,26,
26,26,26,26,26,26,26,26,26,26,26,26,26,26,26,26,7,7,7,7,26,26,7,7,7,7,77,78,7,7,7,7,7,7,7,7,7,7,7,7,7,26,26,26,26,26,26,26,26,7,7,7,7,7,7,7,7,26,26,26,7,7,7,7,7,26,26,26,26,26,26,26,26,7,7,7,7,7,7,7,7,7,7,26,26,26,26,26,26,26,26,26,7,7,7,7,26,26,26,26,
26,26,26,26,26,26,7,26,7,26,26,7,7,26,26,7,7,7,7,7,26,26,26,7,7,7,7,7,7,7,7,26,7,7,7,7,7,26,26,26,26,26,26,26,26,26,26,26,26,26,26,26,7,7,7,7,7,7,26,7,7,7,7,7,26,26,26,26,26,26,26,26,26,26,7,7,7,7,7,7,7,26,26,26,26,26,26,26,26,26,26,26,26,7,7,7,26,26,26,26,
26,26,26,26,26,7,7,7,7,7,7,7,7,7,7,7,7,7,7,26,26,26,26,29,7,7,7,7,7,7,30,26,26,26,26,26,26,26,26,26,26,26,26,26,26,26,26,26,26,26,26,26,26,26,7,7,7,7,7,7,7,7,7,26,26,26,26,26,26,26,26,26,26,26,26,7,7,7,7,7,26,26,26,26,26,26,26,26,26,26,26,26,26,7,7,7,26,26,26,26,
26,26,26,26,26,7,7,7,7,7,7,7,7,7,7,7,7,7,7,26,26,26,26,26,7,7,7,7,7,7,26,26,26,26,26,26,26,26,26,26,26,26,26,26,26,26,26,26,26,26,26,26,26,26,7,7,7,7,7,7,7,26,26,26,26,26,26,26,26,26,26,26,26,26,7,7,7,7,26,26,26,26,26,26,26,26,26,26,26,26,26,26,26,7,7,7,26,26,26,26,
26,26,26,26,26,7,7,7,7,7,7,7,7,7,7,7,7,7,7,7,26,26,26,7,7,7,26,26,26,26,26,26,26,26,26,26,26,26,26,26,26,26,26,26,26,26,26,26,26,26,26,26,26,26,26,7,7,7,7,7,26,26,26,26,26,26,26,26,26,26,26,26,7,7,7,7,26,26,26,26,26,26,26,26,26,26,26,26,26,26,26,26,26,7,7,7,26,26,26,26,
26,26,26,26,7,7,7,7,7,7,7,7,7,7,7,7,7,7,7,7,7,26,26,7,7,7,26,26,26,26,26,26,26,26,26,26,26,26,26,26,26,26,26,26,26,26,26,26,26,26,26,26,26,26,26,7,7,7,7,26,26,26,26,26,26,26,26,26,26,26,7,7,7,7,7,26,26,26,26,26,26,26,26,26,26,26,26,26,26,26,26,26,7,7,7,7,26,26,26,26,
26,26,26,26,7,7,7,7,7,7,7,7,7,7,7,26,26,7,7,7,7,7,7,7,7,26,26,26,26,26,26,26,26,26,26,26,26,26,26,26,26,26,26,26,26,26,26,26,26,26,26,26,26,26,26,7,7,7,7,7,26,26,26,26,26,26,26,26,7,7,7,7,7,7,26,26,26,26,26,26,26,26,26,26,26,26,26,26,26,26,26,26,7,7,7,7,26,26,26,26,
26,26,26,7,7,7,7,7,7,7,7,26,26,26,26,26,26,26,7,7,7,7,7,7,26,26,26,26,26,26,26,26,26,26,26,26,26,26,26,26,26,26,26,26,26,26,26,26,26,26,26,26,26,26,26,26,7,7,7,7,26,26,26,26,26,26,7,7,7,7,7,7,7,26,26,26,26,26,26,26,26,26,26,26,26,26,26,26,26,26,26,26,7,7,7,7,7,26,26,26,
26,26,26,7,7,7,7,7,7,26,26,26,26,26,26,26,26,26,26,7,7,7,7,7,26,26,26,26,26,26,26,26,26,26,26,26,26,26,26,26,26,26,26,26,26,26,26,26,26,26,26,26,26,26,26,26,7,7,7,7,26,26,26,7,7,7,7,7,7,7,7,7,26,26,26,26,26,26,26,26,26,26,26,26,26,26,26,26,26,26,26,26,7,7,7,7,7,26,26,26,
26,26,26,7,7,7,7,7,7,26,82,26,26,26,26,26,26,26,26,7,7,7,7,7,26,26,26,26,26,26,26,26,26,26,26,26,26,26,26,26,26,26,26,26,26,26,26,26,26,26,26,26,26,26,26,26,7,7,7,7,26,7,7,7,7,7,7,7,7,7,7,7,7,26,26,26,26,26,26,26,26,26,26,26,26,26,26,26,26,26,26,7,7,7,7,7,7,26,26,26,
26,26,26,7,7,7,7,7,7,26,26,26,26,26,26,26,26,26,7,7,7,7,7,26,26,26,26,26,26,26,26,26,26,26,26,26,26,26,26,26,26,26,26,26,26,26,26,26,26,26,26,26,26,26,26,7,7,7,7,7,7,7,7,7,7,7,7,7,7,7,7,7,7,7,26,26,26,26,26,26,26,26,26,26,26,26,26,26,26,26,7,7,7,7,7,7,7,26,26,26,
26,26,26,7,7,7,7,7,7,7,26,26,26,26,26,26,26,7,7,7,7,7,26,26,26,26,26,26,26,26,26,26,26,26,26,26,26,26,26,26,26,26,26,26,26,26,26,26,26,26,26,26,26,26,26,7,7,7,7,7,7,7,7,7,7,7,7,26,26,7,7,7,7,7,7,26,26,26,26,26,26,26,26,26,26,26,26,26,26,7,7,7,7,7,7,7,26,26,26,26,
26,26,26,7,7,7,7,7,7,7,7,26,26,26,26,26,7,7,7,7,7,26,26,26,26,26,26,26,26,26,26,26,26,26,26,26,26,26,26,26,26,26,26,26,26,26,26,26,26,26,26,26,26,26,7,7,7,7,7,7,7,7,7,7,7,26,26,26,26,7,7,7,7,7,7,7,7,26,26,26,26,26,26,26,26,26,26,26,7,7,7,7,7,7,7,7,26,26,26,26,
26,26,26,7,7,7,7,7,7,7,7,7,7,7,7,7,7,7,7,7,26,26,26,26,26,26,26,26,26,26,26,26,26,26,26,26,26,26,26,26,26,26,26,26,26,26,26,26,26,26,26,26,26,26,7,7,7,7,7,7,7,7,7,7,26,26,26,26,26,26,26,7,7,7,7,7,7,7,26,26,26,26,26,26,26,7,7,7,7,7,7,7,7,7,7,26,26,26,26,26,
26,26,26,7,7,7,7,7,7,7,7,7,7,7,7,7,7,7,7,26,26,26,26,26,26,26,26,26,26,26,26,26,26,26,26,26,26,26,26,26,26,26,26,26,26,26,26,26,26,26,26,26,26,7,7,7,7,7,7,7,7,7,7,26,26,26,26,26,26,26,26,7,7,7,7,7,7,7,7,26,26,26,7,7,7,7,7,7,7,7,7,7,7,7,26,26,26,26,26,26,
26,26,26,26,7,7,7,7,7,7,7,7,7,7,7,7,7,7,26,26,26,26,26,26,26,26,26,26,26,26,26,26,26,26,26,26,26,26,26,26,26,26,26,26,26,26,26,26,26,26,26,26,26,7,7,7,7,7,7,7,26,26,26,26,26,26,26,26,26,26,26,26,26,7,7,7,7,7,7,7,7,7,7,7,7,7,7,7,7,7,26,26,26,26,26,26,26,26,26,26,
26,26,26,26,7,7,7,7,7,7,7,7,7,7,7,7,7,26,26,26,26,26,26,26,26,26,26,26,26,26,26,26,26,26,26,26,26,26,26,26,26,26,26,26,26,26,26,26,26,26,26,26,7,7,7,7,7,26,26,26,26,26,26,26,26,26,26,26,26,26,26,26,26,7,7,7,7,7,7,7,7,7,7,7,7,7,7,26,26,26,26,26,26,26,26,26,26,26,26,26,
26,26,26,26,26,7,7,7,7,7,7,7,7,7,7,7,26,26,26,26,26,26,26,26,26,26,26,26,26,26,26,26,26,26,26,26,26,26,26,26,26,26,26,26,26,26,26,26,26,26,26,7,7,7,7,7,26,26,26,26,26,26,26,26,26,26,26,26,26,26,26,26,26,26,26,7,7,7,7,7,7,7,7,7,7,26,26,26,26,26,26,26,26,26,26,26,26,26,26,26,
26,26,26,26,26,26,7,7,7,7,7,7,7,7,7,26,26,26,26,26,26,26,26,26,26,26,26,26,26,26,26,26,26,26,26,26,26,26,26,26,26,26,26,26,26,26,26,26,26,7,7,7,7,7,7,26,26,26,26,26,26,26,26,26,26,26,26,26,26,26,26,26,26,26,26,7,7,7,7,7,7,7,7,26,26,26,26,26,26,26,26,26,26,26,26,26,26,26,26,26,
26,26,26,26,26,26,26,7,7,7,7,7,7,7,26,26,26,26,26,26,26,26,26,26,26,26,26,26,26,26,26,26,26,26,26,26,26,26,26,26,26,26,26,26,26,26,26,7,7,7,7,7,7,7,26,26,26,26,26,26,26,26,26,26,26,26,26,26,26,26,26,26,26,26,26,26,7,7,7,7,7,7,7,7,26,26,26,26,26,26,26,26,26,26,26,26,26,26,26,26,
26,26,26,26,26,26,26,7,7,7,7,7,7,26,26,26,26,26,26,26,26,26,26,26,26,26,26,26,26,26,26,26,26,26,26,26,26,26,26,26,26,26,26,26,26,7,7,7,7,7,7,7,26,26,26,26,26,26,26,26,26,26,26,26,26,26,26,26,26,26,26,26,26,26,26,26,26,7,7,26,7,7,7,7,26,26,26,26,26,26,26,26,26,26,26,26,26,26,26,26,
26,26,26,26,26,26,7,7,7,7,7,7,26,26,26,26,26,26,26,26,26,26,26,26,26,26,26,26,26,26,26,26,26,26,26,26,26,26,26,26,26,26,26,7,7,7,7,7,7,7,26,26,26,26,26,26,26,26,26,26,26,26,26,26,26,26,26,26,26,26,26,26,26,7,7,26,26,26,7,7,7,7,7,7,7,26,26,26,26,26,26,26,26,26,26,26,26,26,26,26,
26,26,26,26,26,7,7,7,7,7,7,26,26,26,26,26,26,26,26,26,26,26,26,26,26,26,26,26,26,26,26,26,26,26,26,26,26,26,26,26,26,26,7,7,7,7,7,7,26,26,26,26,26,26,26,26,26,26,26,26,26,26,26,26,26,26,26,26,26,26,26,26,7,7,7,7,26,26,7,7,7,7,7,7,7,7,26,26,26,26,26,26,26,26,26,26,26,26,26,26,
26,26,26,26,7,7,7,7,7,7,7,26,26,26,26,26,26,26,26,26,26,26,26,26,26,26,26,26,26,26,26,26,26,26,26,26,26,26,26,26,26,7,7,7,7,7,7,26,26,26,26,26,26,26,26,26,26,26,26,26,26,26,26,26,26,26,26,26,26,26,26,7,7,7,7,7,7,7,7,7,7,7,7,7,7,7,7,7,7,7,7,7,26,26,26,26,26,26,26,26,
26,26,26,26,7,7,7,7,7,7,7,26,26,26,26,26,26,26,26,26,26,26,26,26,26,26,26,7,26,26,26,26,26,26,26,26,26,26,26,26,26,7,7,7,7,7,7,26,26,26,26,26,26,26,26,26,26,26,26,26,26,26,26,26,26,26,26,26,26,26,7,7,7,7,7,7,7,7,7,7,7,7,7,7,7,7,34,7,7,7,7,7,7,26,26,26,26,26,26,26,
26,26,26,26,26,7,7,7,7,7,7,7,26,26,26,26,26,26,26,26,26,26,26,26,26,26,7,7,7,26,26,26,26,26,26,26,26,26,26,26,26,7,7,7,7,7,26,26,26,26,26,26,26,26,26,26,26,26,26,26,26,26,26,26,26,26,26,26,26,7,7,7,7,7,7,7,7,7,7,7,7,7,7,7,7,7,7,7,7,7,7,7,7,7,7,26,26,26,26,26,
26,26,26,26,26,26,7,7,7,7,7,7,7,26,26,26,26,26,26,26,26,26,26,26,26,7,7,7,7,7,26,26,26,26,26,26,26,26,26,26,26,7,7,7,7,7,26,26,26,26,26,26,26,26,26,26,26,26,26,26,26,26,26,26,26,26,26,26,7,7,7,7,7,7,7,7,7,7,7,7,7,7,7,7,7,7,7,7,7,7,7,4,7,4,7,26,26,26,26,26,
26,26,26,26,26,26,26,7,7,7,7,7,7,7,7,26,26,26,26,26,26,26,26,26,7,7,7,7,7,7,7,26,26,26,26,26,26,26,26,26,7,7,7,7,7,7,26,26,26,26,26,26,26,26,26,26,26,26,26,26,26,26,26,26,26,26,26,7,7,7,7,7,7,7,7,7,7,7,7,7,7,34,7,7,7,7,7,7,7,7,7,28,7,28,7,26,26,26,26,26,
26,26,26,26,26,26,26,7,7,7,7,7,7,7,7,7,26,26,26,26,26,26,26,7,7,7,7,7,7,7,7,7,26,26,26,26,26,26,26,7,7,7,7,7,7,7,26,26,26,26,26,26,26,26,26,26,26,26,26,26,26,26,26,26,26,26,26,7,7,7,7,7,34,7,7,7,7,7,7,7,7,7,7,7,7,7,7,7,7,7,7,52,7,52,7,7,26,26,26,26,
26,26,26,26,26,26,7,7,7,7,7,7,7,7,7,7,7,7,7,7,7,7,7,7,7,7,7,7,7,7,7,7,7,7,7,7,7,7,7,7,7,7,7,7,7,7,26,26,26,26,26,26,26,26,26,26,26,26,26,26,26,26,26,26,26,26,26,7,7,7,7,7,7,7,7,7,7,7,7,7,7,7,7,7,7,7,7,7,7,7,7,7,7,7,7,7,26,26,26,26,
26,26,26,26,26,26,7,7,7,7,7,7,7,7,7,7,7,7,7,7,7,7,7,7,7,7,7,7,7,7,7,7,7,7,7,7,7,7,7,7,7,7,7,7,7,26,26,26,26,26,26,26,26,26,26,26,26,26,26,26,26,26,26,26,26,26,26,7,7,7,7,7,7,7,7,7,7,7,7,7,7,7,7,7,7,7,7,7,7,7,7,4,7,4,7,26,26,26,26,26,
26,26,26,26,26,26,26,7,7,7,7,7,7,7,7,7,7,7,7,7,7,7,7,7,7,7,7,7,7,7,7,7,7,7,7,7,7,7,7,7,7,7,7,7,7,26,26,26,26,26,26,26,26,26,26,26,26,26,26,26,26,26,26,26,26,26,26,7,7,7,7,7,7,7,7,7,7,34,7,7,7,7,7,7,7,7,7,34,7,7,7,28,7,28,7,26,26,26,26,26,
26,26,26,26,26,26,26,7,7,7,7,7,7,7,26,7,7,7,26,7,7,7,26,7,7,7,7,7,7,7,7,7,26,26,26,26,26,26,26,7,7,7,7,7,7,26,26,26,26,26,26,26,26,26,26,26,26,26,26,26,26,26,26,26,26,26,26,7,7,7,7,7,7,7,7,7,7,7,7,7,7,7,7,7,7,7,7,7,7,7,7,52,7,52,7,26,26,26,26,26,
26,26,26,26,26,26,26,7,7,7,7,7,7,26,26,26,7,26,26,26,7,26,26,26,7,7,7,7,7,7,7,26,26,26,26,26,26,26,26,26,7,7,7,7,7,26,26,26,26,26,26,26,26,26,26,26,26,26,26,26,26,26,26,26,26,26,26,26,7,7,7,7,7,7,7,7,7,7,7,7,7,7,7,7,7,7,7,7,7,7,7,7,7,7,7,26,26,26,26,26,
26,26,26,26,26,26,26,26,7,7,7,7,26,26,26,26,26,26,26,26,26,26,26,26,26,7,7,7,7,7,26,26,26,26,26,26,26,26,26,26,26,7,7,7,7,7,26,26,26,26,26,26,26,26,26,26,26,26,26,26,26,26,26,26,26,26,26,26,26,26,7,7,7,7,7,7,7,7,7,7,7,7,7,7,7,7,7,7,7,7,7,7,7,7,26,26,26,26,26,26,
26,26,26,26,26,26,26,26,7,7,7,7,7,26,26,26,26,26,26,26,26,26,26,26,26,26,7,7,7,26,26,26,26,26,26,26,26,26,26,26,26,7,7,7,7,7,26,26,26,26,26,26,26,26,26,26,26,26,26,26,26,26,26,26,26,26,26,26,26,26,26,26,7,7,7,7,7,26,26,26,26,7,7,7,7,7,7,7,7,7,7,7,7,26,26,26,26,26,26,26,
26,26,26,26,26,26,26,26,7,7,7,7,7,26,26,26,26,26,26,26,26,26,26,26,26,26,26,7,26,26,26,26,26,26,26,26,26,26,26,26,26,7,7,7,7,7,7,26,26,26,26,26,26,26,26,26,26,26,26,26,26,26,26,26,26,26,26,26,26,26,26,26,26,26,26,26,26,26,26,58,26,26,7,7,7,7,7,7,7,7,7,7,26,26,26,26,26,26,26,26,
26,26,26,26,26,26,26,26,26,7,7,7,7,7,26,26,26,26,26,26,26,26,26,26,26,26,26,26,26,26,26,26,26,26,26,26,26,26,26,26,26,7,7,7,7,7,7,26,26,26,26,26,26,26,26,26,26,26,26,26,26,26,26,26,26,26,26,26,26,26,26,26,26,26,26,26,26,58,26,26,26,26,26,7,7,7,7,7,7,7,7,7,26,26,26,26,26,26,26,26,
26,26,26,26,26,26,26,26,26,26,7,7,7,7,7,7,26,26,26,26,26,26,26,26,26,26,26,26,26,26,26,26,26,26,26,26,26,26,26,26,26,26,7,7,7,7,7,26,26,26,26,26,26,26,26,26,26,26,26,26,26,26,26,26,26,26,26,26,26,26,26,26,26,26,26,26,26,26,26,58,26,58,26,26,7,7,7,7,7,7,7,7,26,26,26,26,26,26,26,26,
26,26,26,26,26,26,26,26,26,26,26,7,7,7,7,7,7,26,26,26,26,26,26,26,26,26,26,26,26,26,26,26,26,26,26,26,26,26,26,26,26,26,26,7,7,7,7,26,26,26,26,26,26,26,26,26,26,26,26,26,26,26,26,26,26,26,26,26,26,26,26,26,26,26,26,26,58,26,26,26,26,26,26,26,7,7,7,7,7,7,7,26,26,26,26,26,26,26,26,26,
26,26,26,26,26,26,26,26,26,26,26,26,7,7,7,7,7,7,26,26,26,26,26,26,26,26,26,26,26,26,26,26,26,26,26,26,26,26,26,26,26,26,26,7,7,7,7,7,26,26,26,26,26,26,26,26,26,26,26,26,26,26,26,26,26,26,26,26,26,26,26,26,26,26,26,26,26,26,58,26,26,26,58,26,26,7,7,7,7,7,7,26,26,26,26,26,26,26,26,26,
26,26,26,26,26,26,26,26,26,26,26,26,7,7,7,7,7,7,7,26,26,26,26,26,26,26,26,26,26,26,26,26,26,26,26,26,26,26,26,26,26,26,26,26,7,7,7,7,26,26,26,26,26,26,26,26,26,26,26,26,26,26,26,26,26,26,26,26,26,26,26,26,26,26,26,26,26,26,26,26,58,26,26,26,26,7,7,7,7,7,7,26,26,26,26,26,26,26,26,26,
26,26,26,26,26,26,26,26,26,26,26,26,26,26,7,7,7,7,7,7,26,26,26,26,26,26,26,26,26,26,26,26,26,26,26,26,26,26,26,26,26,26,26,26,26,7,7,7,7,26,26,26,26,26,26,26,26,26,26,26,26,26,26,26,26,26,26,26,26,26,26,26,26,26,26,26,26,26,58,26,26,26,58,26,26,7,7,7,7,7,7,26,26,26,26,26,26,26,26,26,
26,26,26,26,26,26,26,26,26,26,26,26,26,26,26,7,7,7,7,7,7,26,26,26,26,26,26,26,26,26,26,26,26,26,26,26,26,26,26,26,26,26,26,26,26,26,7,7,7,26,26,26,26,26,26,26,26,26,26,26,26,26,26,26,26,26,26,26,26,26,26,26,26,26,26,26,26,26,26,26,58,26,26,26,26,7,7,7,7,7,26,26,26,26,26,26,26,26,26,26,
26,26,26,26,26,26,26,26,26,26,26,26,26,26,26,26,7,7,7,7,7,7,26,26,26,26,26,26,26,26,26,26,26,26,26,26,26,26,26,26,26,26,26,26,26,26,7,7,7,26,26,26,26,26,26,26,26,26,26,26,26,26,26,26,26,26,26,26,26,26,26,26,26,26,26,26,26,26,26,26,26,26,58,26,26,7,7,7,7,26,26,26,26,26,26,26,26,26,26,26,
26,26,26,26,26,26,26,26,26,26,26,26,26,26,26,26,26,26,7,7,7,7,7,26,26,26,26,26,26,26,26,26,26,26,26,26,26,26,26,26,26,26,26,26,26,26,7,7,7,26,26,26,26,26,26,26,26,26,26,26,26,26,26,26,26,26,26,26,26,26,26,26,26,26,26,26,26,26,26,26,26,26,26,26,7,7,7,7,7,26,26,26,26,26,26,26,26,26,26,26,
26,26,26,26,26,26,26,26,26,26,26,26,26,26,26,26,26,26,26,7,7,7,7,7,26,26,26,26,26,26,26,26,26,26,26,26,26,26,26,26,26,26,26,26,26,26,7,7,7,26,26,26,26,26,26,26,26,26,26,26,26,26,26,26,26,26,26,26,26,26,26,26,26,26,26,26,26,26,26,26,26,26,26,7,7,7,7,7,26,26,26,26,26,26,26,26,26,26,26,26,
26,26,26,26,26,26,26,26,26,26,26,26,26,26,26,26,26,26,26,26,7,7,7,7,7,26,26,26,26,26,26,26,26,26,26,26,26,26,26,26,26,26,26,26,26,26,7,7,7,26,26,26,26,26,26,26,26,26,26,26,26,26,26,26,26,26,26,26,26,26,26,26,26,26,26,26,26,26,26,26,26,26,7,7,7,7,7,26,26,26,26,26,26,26,26,26,26,26,26,26,
26,26,26,26,26,26,26,26,26,26,26,26,26,26,26,26,26,26,26,26,26,7,7,7,7,7,26,26,26,26,26,26,26,26,26,26,26,26,26,26,26,26,26,26,26,26,7,7,7,26,26,26,26,26,26,26,26,26,26,26,26,26,26,26,26,26,26,26,26,26,26,26,26,26,26,26,26,26,26,26,26,26,7,7,7,7,26,26,26,26,26,26,26,26,26,26,26,26,26,26,
26,26,26,26,26,26,26,26,26,26,26,26,26,26,26,26,26,26,26,26,26,26,7,7,7,7,7,26,26,26,26,26,26,26,26,26,26,26,26,26,26,26,26,26,26,26,7,7,7,26,26,26,26,26,26,26,26,26,26,26,26,26,26,26,26,26,26,26,26,26,26,26,26,26,26,26,26,26,26,26,26,7,7,7,7,7,26,26,26,26,26,26,26,26,26,26,26,26,26,26,
26,26,26,26,26,26,26,26,26,26,26,26,26,26,26,26,26,26,26,26,26,26,26,7,7,7,7,7,26,26,26,26,26,26,26,26,26,26,26,26,26,26,26,26,26,26,7,7,7,26,26,26,26,26,26,26,26,26,26,26,26,26,26,26,26,26,26,26,26,26,26,26,26,26,26,26,26,26,26,26,7,7,7,7,7,7,26,26,26,26,26,26,26,26,26,26,26,26,26,26,
26,26,26,26,26,26,26,26,26,26,26,26,26,26,26,26,26,26,26,26,26,26,26,7,7,7,7,7,7,26,26,26,26,26,26,26,26,26,26,26,26,26,26,26,26,26,7,7,7,26,26,26,26,26,26,26,26,26,26,26,26,26,26,26,26,26,26,26,26,26,26,26,26,26,26,26,26,26,26,7,7,7,7,7,7,26,26,26,26,26,26,26,26,26,26,26,26,26,26,26,
26,26,26,26,26,26,26,26,26,26,26,26,26,26,26,26,26,26,26,26,26,26,26,26,7,7,7,7,7,7,26,26,26,26,26,26,26,26,26,26,26,26,26,26,26,26,7,7,7,26,26,26,26,26,26,26,26,26,26,26,26,26,26,26,26,26,26,26,7,7,7,26,26,26,26,26,26,26,7,7,7,7,7,7,7,26,26,26,26,26,26,26,26,26,26,26,26,26,26,26,
26,26,26,26,26,26,26,26,26,26,26,26,26,26,26,26,26,26,26,26,26,26,26,26,7,7,7,7,7,7,7,26,26,26,26,26,26,26,26,26,26,26,26,26,26,26,7,7,7,26,26,26,26,26,26,26,26,26,26,26,26,26,26,26,26,26,26,26,7,7,7,7,7,7,26,26,7,7,7,7,7,7,7,7,7,26,26,26,26,26,26,26,26,26,26,26,26,26,26,26,
26,26,26,26,26,26,26,26,26,26,26,26,26,26,26,26,26,26,26,26,26,26,26,26,7,7,7,7,7,7,7,7,7,26,26,26,26,26,26,26,26,26,26,26,26,26,7,7,7,26,26,26,26,26,26,26,26,26,26,26,26,26,26,26,26,26,7,7,7,7,7,7,7,7,7,7,7,7,7,7,7,7,7,7,7,26,26,26,26,26,26,26,26,26,26,26,26,26,26,26,
26,26,26,26,26,26,26,26,26,26,26,26,26,26,26,26,26,26,26,26,26,26,26,26,26,7,7,7,7,7,7,7,26,26,26,26,26,26,26,26,26,26,26,26,26,26,7,7,7,26,26,26,26,26,26,26,26,26,26,26,26,26,26,26,26,7,7,7,7,7,7,7,7,7,7,7,7,7,7,7,7,7,7,7,26,26,26,26,26,26,26,26,26,26,26,26,26,26,26,26,
26,26,26,26,26,26,26,26,26,26,26,26,26,26,26,26,26,26,26,26,26,26,26,26,26,7,7,7,7,7,7,26,26,26,26,26,26,26,26,26,26,26,26,26,26,26,7,7,7,26,26,26,26,26,26,26,26,26,26,26,26,26,26,26,26,7,7,7,7,7,7,7,7,7,7,7,7,7,7,7,7,7,7,7,26,26,26,26,26,26,26,26,26,26,26,26,26,26,26,26,
26,26,26,26,26,26,26,26,26,26,26,26,26,26,26,26,26,26,26,26,26,26,26,26,7,7,7,7,7,7,26,26,26,26,26,26,26,26,26,26,26,26,26,26,26,26,7,7,7,26,26,26,26,26,26,26,26,26,26,26,26,26,26,26,7,7,7,7,7,7,7,7,7,7,7,7,7,7,7,7,7,7,7,7,26,26,26,26,26,26,26,26,26,26,26,26,26,26,26,26,
26,26,26,26,26,26,26,26,26,26,26,26,26,26,26,26,26,26,26,26,26,26,26,26,7,7,7,7,7,26,26,26,26,26,26,26,26,26,26,26,26,26,26,26,26,26,7,7,7,26,26,26,26,26,26,26,26,26,26,26,26,7,7,7,7,34,7,7,7,7,7,26,26,26,26,26,7,7,7,7,7,7,7,7,7,7,26,26,26,26,26,26,26,26,26,26,26,26,26,26,
26,26,26,26,26,26,26,26,26,26,26,26,26,26,26,26,26,26,26,26,26,26,26,26,7,7,7,7,26,26,26,26,26,26,26,26,26,26,26,26,26,26,26,26,26,26,7,7,7,26,26,26,26,26,26,26,26,26,7,7,7,34,7,34,7,7,7,7,7,7,26,26,26,26,26,26,26,7,7,7,7,7,7,7,7,7,7,26,26,26,26,26,26,26,26,26,26,26,26,26,
26,26,26,26,26,26,26,26,26,26,26,26,26,26,26,26,26,26,26,26,26,26,26,7,7,7,7,7,26,26,26,26,26,26,7,7,7,7,26,26,26,26,26,26,26,7,7,7,7,7,26,26,26,26,26,26,7,7,7,7,34,7,7,7,7,7,26,26,26,26,26,26,26,26,26,26,26,26,26,26,7,7,7,7,7,7,7,7,26,26,26,26,26,26,26,26,26,26,26,26,
26,26,26,26,26,26,26,26,26,26,26,26,26,26,26,26,26,26,26,26,26,26,7,7,7,7,7,26,26,26,26,26,26,7,7,7,7,7,7,7,26,26,26,26,7,7,7,7,7,7,7,26,26,26,7,7,7,7,7,7,7,7,7,26,26,26,26,26,26,26,26,26,26,26,26,26,26,26,26,26,26,26,7,7,7,7,7,7,26,26,26,26,26,26,26,26,26,26,26,26,
26,26,26,26,26,26,26,26,26,26,26,26,26,26,26,26,26,26,26,26,26,7,7,7,7,7,26,26,26,26,26,26,26,7,7,7,7,7,7,7,7,26,26,7,7,7,7,7,7,7,7,7,7,7,7,34,7,34,7,7,7,7,26,26,26,26,26,26,26,26,26,26,26,26,26,26,26,26,26,26,26,26,7,7,7,7,7,7,26,26,26,26,26,26,26,26,26,26,26,26,
26,26,26,26,26,26,26,26,26,26,26,26,26,26,26,26,26,26,26,7,7,7,7,7,7,7,26,26,26,26,26,26,26,7,7,7,7,7,7,7,7,7,7,7,7,7,7,7,7,7,7,7,7,34,7,7,7,7,26,26,26,26,26,26,26,26,26,26,26,26,26,26,26,26,26,26,26,26,26,26,26,26,7,7,7,7,7,7,26,26,26,26,26,26,26,26,26,26,26,26,
26,26,26,26,26,26,26,26,26,26,26,26,26,26,26,26,26,26,7,7,7,7,7,7,7,26,26,26,26,26,26,26,26,7,7,7,7,7,7,7,7,7,7,7,7,7,7,7,7,7,7,7,7,7,7,34,7,26,26,26,26,26,26,26,26,26,26,26,26,26,26,26,26,26,26,26,26,26,26,26,26,26,7,7,7,7,7,7,26,26,26,26,26,26,26,26,26,26,26,26,
26,26,26,26,26,26,26,26,26,26,26,26,26,26,26,26,26,7,7,7,7,7,7,7,26,26,26,26,26,26,26,26,26,7,7,7,7,7,7,7,7,7,7,7,7,7,7,7,7,7,7,7,7,7,7,7,7,7,26,26,26,26,26,26,26,26,26,26,26,26,26,26,26,26,26,26,26,26,26,26,26,26,7,7,7,7,7,7,26,26,26,26,26,26,26,26,26,26,26,26,
26,26,26,26,26,26,26,26,26,26,26,26,26,26,26,7,7,7,7,7,7,7,7,26,26,26,26,26,26,26,26,26,26,7,7,7,7,7,7,7,7,26,26,7,7,7,7,7,7,7,7,7,7,7,7,7,7,7,7,26,26,26,26,26,26,26,26,26,26,26,26,26,26,26,26,26,26,26,26,26,26,26,7,7,7,7,7,7,26,26,26,26,26,26,26,26,26,26,26,26,
26,26,26,26,26,26,26,26,26,26,26,26,26,26,7,7,7,7,7,7,7,7,26,26,26,26,26,26,26,26,26,26,26,7,7,7,7,7,7,7,26,26,26,26,26,26,26,26,26,26,7,7,7,7,7,7,7,7,7,7,26,26,26,26,26,26,26,26,26,26,26,26,26,26,26,26,26,26,26,26,26,26,7,7,7,7,7,7,26,26,26,26,26,26,26,26,26,26,26,26,
26,26,26,26,26,26,26,26,26,26,26,7,7,7,7,7,7,7,7,7,26,26,26,26,26,26,26,26,26,26,26,26,26,26,7,7,7,7,26,26,26,26,26,26,26,26,26,26,26,26,26,26,7,7,7,7,7,7,7,7,7,7,26,26,26,26,26,26,26,26,26,26,26,26,26,26,26,26,26,26,26,26,7,7,7,7,7,7,26,26,26,26,26,26,26,26,26,26,26,26,
26,26,26,26,26,26,26,26,26,7,7,7,7,7,7,7,7,7,7,7,26,26,26,26,26,26,26,26,26,26,26,26,26,26,26,26,26,26,26,26,26,26,26,26,26,26,26,26,26,26,26,26,26,7,7,7,7,7,7,7,7,7,26,26,26,26,26,26,26,26,26,26,26,26,26,26,26,26,26,26,26,26,7,7,7,7,7,7,26,26,26,26,26,26,26,26,26,26,26,26,
26,26,26,26,26,26,26,26,7,7,7,7,7,7,7,7,7,7,7,7,7,26,26,26,26,26,26,26,26,26,26,26,26,26,26,26,26,26,26,26,26,26,26,26,26,26,26,26,26,26,26,26,26,26,7,7,7,7,7,7,7,7,26,26,7,26,26,26,26,26,26,26,26,26,26,26,26,26,26,26,26,26,26,7,7,7,7,26,26,26,26,26,26,26,26,26,26,26,26,26,
26,26,26,26,26,26,26,7,7,7,7,7,7,7,7,7,7,7,7,7,7,7,7,26,26,26,26,26,26,26,26,26,26,26,26,26,26,26,26,26,26,26,26,26,26,26,26,26,26,26,26,26,26,7,7,7,7,7,7,7,7,7,7,7,7,7,7,7,7,7,7,26,26,26,26,26,26,26,26,26,26,26,26,7,7,7,7,26,26,26,26,26,26,26,26,26,26,26,26,26,
26,26,26,26,26,26,26,7,7,7,7,7,7,7,7,7,7,7,7,7,7,7,7,7,26,26,26,26,26,26,26,26,26,26,26,26,26,26,26,26,26,26,26,26,26,26,26,26,26,26,26,26,7,7,7,7,7,7,7,7,7,7,7,7,7,7,7,7,7,7,7,7,7,7,26,26,26,26,26,26,26,26,26,7,7,7,7,26,26,26,26,26,26,26,26,26,26,26,26,26,
26,26,26,26,26,26,7,7,7,7,7,7,7,7,7,7,7,7,7,7,7,7,7,7,26,26,26,26,26,26,26,26,26,26,26,26,26,26,26,26,26,26,26,26,26,26,26,26,26,26,26,7,7,7,7,7,7,7,7,7,7,7,7,7,7,7,7,7,7,7,7,7,7,7,7,7,26,26,26,26,26,26,26,7,7,7,7,7,26,26,26,26,7,7,7,7,7,26,26,26,
26,26,26,26,26,26,7,7,7,7,7,7,7,7,7,7,7,7,7,7,7,7,7,7,7,26,26,26,26,26,26,26,26,26,26,26,26,26,26,26,26,26,26,26,26,26,26,26,26,26,7,7,7,7,7,7,7,7,7,7,7,7,7,7,7,7,7,7,7,7,7,7,7,7,7,7,26,26,26,26,26,26,26,26,7,7,7,7,7,26,26,7,7,7,7,7,7,26,26,26,
26,26,26,26,26,26,7,7,7,7,7,7,7,7,7,7,7,7,7,7,7,7,7,7,7,26,26,26,26,26,26,26,26,26,26,26,26,26,26,26,26,26,26,26,26,26,26,26,26,7,7,7,7,7,7,7,7,7,7,7,7,7,7,7,7,7,7,7,7,7,7,7,7,7,7,7,7,26,26,26,26,26,26,26,26,7,7,7,7,26,7,7,7,7,7,7,7,26,26,26,
26,26,26,26,26,26,7,7,7,7,7,7,7,7,7,7,7,7,7,7,7,7,7,7,7,26,26,26,26,26,26,26,26,26,26,26,26,26,26,26,26,26,26,26,26,26,26,26,7,7,7,7,7,7,7,7,7,7,7,7,7,7,7,7,7,7,7,7,7,7,7,7,7,7,7,7,7,7,7,7,7,7,7,7,7,7,7,7,7,7,7,7,7,7,7,7,7,26,26,26,
26,26,26,26,26,26,26,7,7,7,7,7,7,7,7,7,7,7,7,7,7,7,7,7,7,7,7,26,26,26,26,26,26,26,26,26,26,26,26,26,26,26,26,26,26,26,26,7,7,7,7,7,7,7,7,7,7,7,7,7,7,7,7,26,7,7,7,7,7,7,7,7,7,7,7,7,7,7,7,7,7,7,7,7,7,7,7,7,7,7,7,7,7,7,7,7,7,26,26,26,
26,26,26,26,26,26,26,26,7,7,7,7,7,7,7,7,7,7,7,7,7,7,7,7,7,7,7,7,7,26,26,26,26,26,26,26,26,26,26,26,26,26,26,26,26,26,7,7,7,7,7,7,7,7,7,7,7,26,7,7,7,7,7,26,26,7,7,7,7,7,7,7,7,7,7,7,7,7,7,7,7,7,7,7,7,7,7,7,7,7,7,7,7,7,7,7,7,26,26,26,
26,26,26,26,26,26,26,26,26,7,7,7,7,7,7,7,7,7,7,7,7,7,7,7,7,7,7,7,7,7,7,7,7,7,26,26,26,26,26,26,26,26,26,26,26,26,7,7,7,7,7,7,7,7,7,7,26,26,26,7,7,7,7,26,26,26,7,7,7,7,26,26,26,26,26,26,26,26,26,26,26,26,7,7,7,7,7,7,7,7,7,7,7,7,7,7,7,26,26,26,
26,26,26,26,26,26,26,26,26,26,7,7,7,7,7,7,7,7,7,7,7,7,7,7,7,7,7,7,7,7,7,7,7,7,7,7,7,7,7,7,7,26,26,26,26,7,7,7,7,7,7,7,7,7,7,26,26,26,26,26,7,7,7,26,26,26,7,7,7,26,26,26,26,26,26,26,26,26,26,26,26,26,26,26,26,26,7,7,7,7,7,7,7,7,7,7,7,26,26,26,
26,26,26,26,26,26,26,26,26,26,26,26,7,7,7,7,7,7,7,7,7,7,7,7,7,7,7,7,7,7,7,7,7,7,7,7,7,7,7,7,7,7,7,7,7,7,7,7,7,7,7,7,7,7,26,26,26,26,26,26,26,7,7,26,26,26,7,7,26,26,26,26,26,26,26,26,26,26,26,26,26,26,26,26,26,26,26,26,7,7,7,7,7,7,7,7,7,26,26,26,
26,26,26,26,26,26,26,26,26,26,26,26,26,26,26,26,26,26,26,26,26,26,26,26,7,7,7,7,7,7,7,7,7,7,7,7,7,7,7,7,7,7,7,7,7,7,7,7,7,7,7,7,7,26,26,26,26,26,26,26,26,26,7,26,26,26,7,26,26,26,26,26,26,26,26,26,26,26,26,26,26,26,26,26,26,26,26,26,26,26,7,7,7,7,7,7,7,26,26,26,
26,26,26,26,26,26,26,26,26,26,26,26,26,26,26,26,26,26,26,26,26,26,26,26,26,26,7,7,7,7,7,7,7,7,7,7,7,7,7,7,7,7,7,7,7,7,7,7,7,7,7,7,26,26,26,26,26,26,26,26,26,26,26,26,26,26,26,26,26,26,26,26,26,26,26,26,26,26,26,26,26,26,26,26,26,26,26,26,26,26,26,26,26,7,7,7,7,26,26,26,
26,26,26,26,26,26,26,26,26,26,26,26,26,26,26,26,26,26,26,26,26,26,26,26,26,26,26,7,7,7,7,7,7,7,7,7,7,7,7,7,7,7,7,7,7,7,7,7,26,26,26,26,26,26,26,26,26,26,26,26,26,26,26,26,26,26,26,26,26,26,26,26,26,26,26,26,26,26,26,26,26,26,26,26,26,26,26,26,26,26,26,26,26,26,26,26,26,26,26,26,
26,26,26,26,26,26,26,26,26,26,26,26,26,26,26,26,26,26,26,26,26,26,26,26,26,26,26,26,26,26,26,26,26,26,26,26,26,26,26,26,26,26,26,26,26,26,26,26,26,26,26,26,26,26,26,26,26,26,26,26,26,26,26,26,26,26,26,26,26,26,26,26,26,26,26,26,26,26,26,26,26,26,26,26,26,26,26,26,26,26,26,26,26,26,26,26,26,26,26,26,
26,26,26,26,26,26,26,26,26,26,26,26,26,26,26,26,26,26,26,26,26,26,26,26,26,26,26,26,26,26,26,26,26,26,26,26,26,26,26,26,26,26,26,26,26,26,26,26,26,26,26,26,26,26,26,26,26,26,26,26,26,26,26,26,26,26,26,26,26,26,26,26,26,26,26,26,26,26,26,26,26,26,26,26,26,26,26,26,26,26,26,26,26,26,26,26,26,26,26,26
</data>
 </layer>
 <layer id="9" name="Entities" width="100" height="100">
  <data encoding="csv">
97,97,97,97,97,97,97,97,97,97,97,97,97,97,97,97,97,97,97,97,97,198,97,97,97,198,97,97,97,97,97,198,97,97,97,97,97,97,97,198,97,198,97,97,97,198,97,198,97,198,97,198,97,198,97,198,97,198,97,198,97,198,97,198,97,198,97,198,97,198,97,198,97,198,97,198,97,198,97,198,97,198,97,198,97,198,97,97,97,97,97,97,97,97,97,97,97,97,97,97,
97,198,97,198,97,198,97,198,97,198,97,198,97,198,97,198,97,198,97,198,97,97,97,198,97,97,97,198,97,198,97,97,97,198,97,198,97,198,97,97,97,97,97,198,97,97,97,97,97,97,97,97,97,97,97,97,97,97,97,97,97,97,97,97,97,97,97,97,97,97,97,97,97,97,97,97,97,97,97,97,97,97,97,97,97,97,97,198,97,198,97,198,97,198,97,198,97,97,198,97,
97,97,97,97,97,97,97,97,97,97,97,97,97,97,97,97,97,97,97,97,97,97,97,97,97,97,97,97,97,97,97,97,97,97,97,97,97,97,97,97,97,97,97,97,97,198,97,198,97,198,97,198,97,198,97,198,97,198,97,198,97,198,97,198,97,97,97,97,97,97,97,97,97,97,198,97,97,97,198,97,97,97,97,198,97,97,97,97,97,97,97,97,97,97,97,97,97,97,97,97,
97,198,97,198,97,97,97,97,97,97,97,97,97,97,97,97,198,97,198,97,97,97,97,97,97,97,97,97,97,97,97,97,97,97,198,97,198,97,97,97,97,97,97,97,97,97,97,97,97,97,97,97,97,97,97,97,97,97,97,97,97,97,97,97,198,97,97,97,97,97,97,97,97,97,97,97,198,97,97,97,97,97,97,97,97,97,97,97,97,198,97,97,97,97,198,97,198,97,97,97,
97,97,97,97,97,97,99,97,97,97,97,97,97,97,97,97,97,97,97,97,97,97,97,97,97,97,97,97,97,97,97,97,97,97,97,97,97,97,97,97,97,97,97,97,97,97,97,97,97,97,97,97,97,97,97,97,97,97,198,97,198,97,198,97,97,97,198,97,97,97,97,97,97,97,198,97,97,97,97,97,97,97,97,97,97,97,97,97,97,97,97,97,97,97,97,97,97,97,198,97,
97,198,97,97,97,97,97,97,97,97,97,97,97,97,97,97,97,198,97,97,97,97,97,97,97,97,97,97,97,97,97,97,97,97,97,97,97,97,97,97,97,97,97,97,97,97,97,97,97,97,97,97,97,97,97,97,97,97,97,97,97,97,97,97,198,97,97,97,198,97,97,97,97,97,97,97,97,97,97,97,97,97,97,97,97,97,97,97,97,97,97,97,99,97,97,97,198,97,97,97,
97,97,97,97,97,97,97,97,97,97,97,97,97,97,97,97,97,97,97,97,97,97,97,97,97,97,97,97,97,97,97,97,97,97,97,97,97,97,97,97,97,97,97,97,97,97,97,97,97,97,97,97,97,97,99,97,97,97,97,97,198,97,198,97,97,97,198,97,97,97,97,97,97,97,97,97,97,97,97,97,97,97,97,97,97,97,97,97,97,97,97,97,97,97,97,97,97,97,97,97,
97,198,97,97,97,97,97,97,97,97,97,97,97,97,97,97,97,97,97,97,97,97,97,97,97,97,97,97,97,97,97,97,97,97,97,97,97,97,97,97,97,97,97,97,97,97,97,97,97,97,97,97,97,97,97,97,97,97,97,97,97,97,97,97,198,97,97,97,97,97,97,97,97,97,97,97,97,97,97,97,97,97,97,97,97,97,97,97,97,97,97,97,97,97,97,97,198,97,198,97,
97,97,97,97,97,97,97,97,97,97,97,97,97,97,97,97,97,97,97,97,97,97,97,97,97,97,97,97,97,97,97,97,97,97,97,97,97,97,97,198,97,97,97,97,97,97,97,97,97,97,97,97,97,97,97,97,97,97,97,97,97,97,97,97,97,97,97,97,97,97,97,97,97,97,97,97,97,97,97,97,97,97,97,97,97,97,97,97,97,97,97,97,97,97,97,97,97,97,97,97,
97,198,97,198,97,97,97,97,97,97,97,97,97,97,97,97,97,97,97,97,97,97,97,97,97,97,97,97,97,97,97,97,97,198,97,97,198,97,97,97,97,97,97,97,97,97,97,97,97,97,97,97,97,97,97,97,97,97,97,97,97,97,97,97,97,97,97,97,97,97,97,97,97,97,97,97,97,97,97,97,97,97,97,97,97,97,97,97,97,97,97,97,97,97,97,97,97,97,198,97,
97,97,97,97,97,97,97,97,97,97,97,97,97,97,97,97,97,97,97,97,97,97,97,97,97,97,97,97,97,97,97,97,97,97,97,97,97,97,97,97,97,97,97,97,97,97,97,97,97,97,97,97,97,97,97,97,97,97,97,97,97,97,97,97,97,97,97,97,97,97,97,97,97,97,97,97,97,97,97,97,97,97,97,97,97,97,97,97,97,97,97,97,97,97,97,97,97,97,97,97,
97,198,97,198,97,198,97,97,97,97,97,97,97,97,97,97,97,97,97,97,97,97,97,97,97,97,97,97,97,97,97,97,97,97,97,97,97,97,97,97,97,97,97,97,97,97,97,97,97,97,97,97,97,97,97,97,97,97,97,198,97,97,97,97,97,97,97,97,97,97,97,97,97,97,97,97,97,97,97,97,97,97,97,97,97,97,97,97,97,97,97,97,97,97,97,97,198,97,198,97,
97,97,97,97,97,97,97,97,97,97,97,97,97,97,97,97,97,97,97,97,97,97,97,97,97,97,198,97,97,97,97,97,97,97,97,97,97,97,97,97,97,97,97,97,97,97,97,97,97,97,97,97,97,97,97,97,97,97,97,97,97,97,97,97,97,97,97,97,97,97,97,97,97,97,97,97,97,97,97,97,97,97,97,97,97,97,97,198,97,97,97,97,97,97,97,97,97,97,97,97,
97,198,97,198,97,198,97,198,97,198,97,97,97,198,97,198,97,97,97,97,97,97,97,97,97,97,97,97,97,97,97,97,97,97,97,97,97,97,97,97,97,97,97,97,97,198,97,97,97,97,97,97,97,97,97,97,97,198,97,97,97,97,97,97,97,97,97,97,97,198,97,97,97,97,97,97,97,97,97,97,97,97,97,97,97,97,97,97,97,97,97,97,97,97,97,97,198,97,198,97,
97,97,97,97,97,97,97,97,97,97,97,97,97,97,97,97,97,97,97,97,97,97,97,97,97,97,97,97,97,97,97,97,97,97,97,97,97,97,97,97,97,97,198,97,97,97,97,198,97,97,198,97,97,97,97,97,97,97,97,97,97,97,97,97,97,97,198,97,97,97,97,97,97,97,97,97,97,97,97,97,97,97,97,97,97,97,97,97,97,97,97,97,97,97,97,97,97,97,97,97,
97,198,97,198,97,97,97,97,97,97,97,97,97,97,97,97,97,97,97,97,97,198,97,97,97,97,97,97,97,97,97,97,97,97,97,97,97,198,97,198,97,97,97,97,97,97,97,97,97,97,97,97,198,97,97,97,97,97,97,97,97,97,97,97,97,97,97,97,97,97,97,97,198,97,97,97,97,97,97,97,97,97,198,97,97,97,97,97,97,97,97,198,97,97,97,97,97,198,97,97,
97,97,97,97,97,97,97,97,97,97,97,97,97,97,97,97,97,97,97,97,97,97,97,97,97,97,97,97,97,97,97,97,97,198,97,198,97,97,97,97,97,198,97,198,97,198,97,198,97,97,198,97,97,97,97,97,97,97,97,97,97,97,97,198,97,97,97,97,97,97,97,97,97,97,97,97,97,97,97,97,97,97,97,97,97,97,97,97,97,97,97,97,97,97,97,97,97,97,97,97,
97,198,97,198,97,97,97,97,97,97,97,97,97,97,97,97,97,97,97,97,97,97,97,97,97,97,97,97,97,97,97,97,97,97,97,97,97,198,97,198,97,97,97,97,97,97,97,97,97,97,97,97,97,198,97,97,97,97,97,97,97,97,97,97,97,97,97,97,198,97,97,97,97,97,97,97,97,97,97,97,97,97,97,97,97,97,198,97,97,97,97,97,97,97,97,97,97,198,97,97,
97,97,97,97,97,97,97,97,97,97,97,97,97,97,97,97,97,97,97,97,97,97,97,97,97,97,97,97,97,97,97,97,97,198,97,198,97,97,97,97,97,97,97,97,97,97,97,198,97,198,97,198,97,97,97,97,97,97,97,97,97,97,97,97,198,97,97,97,97,97,97,97,97,97,97,97,97,198,97,97,97,97,97,97,97,97,97,97,97,97,97,97,97,97,97,97,97,97,97,97,
198,97,198,97,97,97,97,97,97,97,97,97,97,97,97,97,97,97,97,97,97,97,97,97,97,97,97,97,97,97,97,97,97,97,97,97,97,97,97,97,198,97,97,97,97,97,97,97,97,97,97,97,97,198,97,97,97,97,97,97,97,198,97,97,97,97,97,97,97,97,97,97,97,97,97,97,97,97,97,97,97,97,97,97,97,97,97,97,97,97,97,97,97,97,97,97,97,198,97,97,
97,97,97,97,97,97,97,97,97,97,97,97,97,97,97,97,198,97,97,97,97,97,97,97,97,97,97,97,97,97,97,97,97,97,97,97,97,97,97,97,97,97,97,97,97,97,97,97,97,97,97,198,97,97,97,97,97,97,97,97,97,97,97,97,97,97,97,97,97,97,97,97,97,97,97,97,97,97,97,97,97,97,97,97,97,97,97,97,97,97,198,97,97,97,97,97,97,97,97,97,
97,198,97,97,97,97,97,97,97,97,97,97,198,97,198,97,97,97,97,97,97,97,97,97,97,198,97,97,97,97,97,97,97,97,97,97,97,97,97,97,97,97,97,97,97,97,97,97,97,97,97,97,97,97,198,97,97,97,97,97,97,97,97,97,97,97,97,97,97,97,97,97,97,97,198,97,97,97,97,97,97,198,97,97,97,97,97,97,97,97,97,97,97,97,97,97,97,97,198,97,
97,97,97,97,97,97,97,97,97,97,198,97,97,97,97,198,97,198,97,97,97,97,97,97,97,97,97,97,97,97,97,97,97,97,97,97,97,97,97,97,97,97,97,97,97,97,97,97,97,97,97,198,97,97,97,97,97,97,97,97,97,97,97,97,97,97,97,97,97,97,97,97,97,97,97,97,97,97,97,97,97,97,97,97,97,97,97,97,198,97,97,97,97,97,97,97,97,97,97,97,
97,198,97,97,99,97,97,97,97,97,97,97,198,97,97,97,97,97,97,97,97,97,97,97,97,198,97,97,97,97,97,97,97,97,97,97,97,97,97,97,97,97,97,97,97,97,97,97,97,97,97,97,97,198,97,97,97,97,97,97,97,97,97,97,97,97,97,97,97,97,97,97,97,97,97,97,97,97,97,97,97,97,97,97,97,97,97,97,97,97,97,97,97,97,97,97,97,97,198,97,
97,97,97,97,97,97,97,97,97,97,97,198,97,198,97,198,97,97,97,97,97,97,97,97,97,97,97,97,97,97,97,97,97,97,97,97,97,97,97,97,97,97,97,97,97,97,97,97,97,97,97,97,97,97,97,97,97,97,97,97,97,97,97,97,97,97,97,97,97,97,97,97,97,97,97,97,97,97,198,97,97,97,97,97,97,97,198,97,97,97,97,97,97,97,97,97,97,97,97,97,
97,198,97,97,97,97,97,97,97,97,97,97,97,97,97,97,97,97,97,97,97,97,97,198,97,198,97,97,97,97,97,97,97,198,97,97,97,97,97,97,198,97,97,97,97,97,97,198,97,97,97,97,198,97,97,97,97,97,97,97,97,97,97,97,97,97,97,198,97,97,97,97,97,97,97,97,97,97,97,97,97,97,97,198,97,97,97,97,97,97,97,97,97,97,97,97,97,97,198,97,
97,97,97,97,97,97,97,97,97,97,97,97,97,97,97,97,97,97,97,97,97,97,97,97,97,97,97,97,97,97,97,97,97,97,97,97,97,97,97,97,97,97,97,97,97,97,97,97,97,97,97,97,97,97,97,97,97,97,97,97,97,97,97,97,97,198,97,97,97,97,97,97,97,97,97,97,97,97,97,97,198,97,97,97,97,97,97,97,97,97,97,97,97,97,97,97,198,97,97,97,
97,198,97,97,97,97,97,97,97,97,97,97,97,97,97,97,97,97,97,97,97,198,97,97,97,97,97,97,97,97,97,97,97,97,97,97,97,97,97,97,97,97,97,97,97,97,97,97,97,97,97,198,97,97,97,97,97,97,97,97,97,97,97,97,97,97,97,198,97,198,97,97,97,97,97,97,97,97,97,97,97,97,97,97,97,97,97,97,97,97,97,97,97,97,97,97,97,97,198,97,
97,97,97,97,97,97,97,97,97,97,97,97,97,97,97,97,97,97,97,97,97,97,97,97,97,97,97,97,97,97,97,97,97,97,97,97,97,97,97,97,97,97,97,97,97,97,97,97,97,97,97,97,97,97,97,97,97,97,97,97,97,97,97,198,97,198,97,97,97,97,97,97,97,97,97,97,97,97,97,97,97,97,97,97,97,97,97,97,97,97,97,97,97,97,97,198,97,97,97,97,
97,198,97,97,97,97,97,97,97,97,97,97,97,97,97,97,97,97,97,198,97,198,97,97,97,97,97,97,97,98,97,97,97,97,97,97,97,97,97,97,97,97,97,97,97,97,97,97,97,97,198,97,97,97,97,97,97,97,97,97,97,198,97,97,97,97,97,198,97,198,97,198,97,97,97,97,97,97,97,97,97,97,97,97,97,97,97,97,97,97,97,198,97,198,97,97,97,198,97,198,
97,97,97,97,97,97,97,97,97,97,97,97,97,97,97,97,97,97,97,97,97,97,97,97,97,97,97,97,97,97,97,97,97,97,97,97,97,97,97,97,97,97,97,97,97,97,97,97,198,97,97,97,97,97,97,97,97,97,198,97,97,97,97,198,97,97,97,97,97,97,97,97,97,198,97,97,97,97,97,97,97,97,97,97,97,97,97,97,198,97,97,97,97,97,97,198,97,97,97,97,
97,198,97,198,97,97,97,97,97,97,97,97,97,97,97,97,97,198,97,198,97,97,97,97,97,198,97,97,97,97,97,97,97,198,97,97,97,97,97,97,97,97,97,97,97,97,198,97,97,97,97,97,97,97,97,97,97,97,97,97,97,198,97,97,97,97,97,97,97,97,97,97,97,97,97,97,97,97,97,97,97,97,97,97,97,97,198,97,97,97,198,97,97,97,97,97,97,97,97,198,
97,97,97,97,97,97,97,97,97,97,97,97,97,97,97,97,97,97,97,97,97,97,97,97,97,97,97,97,97,97,97,97,97,97,97,97,97,97,97,97,97,97,97,97,198,97,97,97,97,97,97,97,97,97,97,97,198,97,198,97,97,97,97,97,97,97,97,97,97,97,97,97,97,97,198,97,97,97,97,97,97,97,97,97,198,97,97,97,198,97,97,97,198,97,97,97,97,97,97,97,
97,198,97,198,97,198,97,97,97,97,97,97,97,97,97,198,97,198,97,97,97,97,97,97,97,97,97,97,97,97,97,97,97,97,97,97,97,97,97,97,97,97,198,97,97,97,97,97,97,97,97,97,97,97,97,97,97,97,97,97,97,97,97,97,97,97,97,97,97,97,97,97,97,97,97,97,97,97,97,97,97,97,97,97,97,97,198,97,97,97,97,97,97,97,97,97,97,97,97,198,
97,97,97,97,97,97,97,97,97,97,97,97,97,97,97,97,97,97,97,97,97,97,97,97,97,97,97,97,97,97,97,97,97,97,97,97,97,198,97,97,198,97,97,97,97,97,97,97,97,97,97,97,97,198,97,97,198,97,97,97,97,97,97,97,97,97,198,97,97,97,97,97,97,97,97,97,198,97,97,97,97,97,97,97,97,97,97,198,97,198,97,198,97,198,97,97,97,97,97,97,
97,198,97,198,97,97,97,97,97,97,97,97,97,198,97,198,97,97,97,97,97,97,97,97,97,97,97,97,97,97,97,97,97,97,97,97,97,97,97,97,97,97,97,97,97,97,97,97,97,97,198,97,97,97,97,97,97,97,97,97,97,97,97,97,97,97,97,97,97,97,97,97,97,97,97,97,97,97,97,97,97,97,97,97,97,97,97,97,97,97,97,97,97,97,97,97,97,97,97,198,
97,97,97,97,97,97,97,97,97,97,97,198,97,97,97,97,97,97,97,97,97,97,97,97,97,97,198,97,198,97,97,97,97,97,97,97,198,97,97,198,97,97,97,97,97,97,97,97,97,97,97,97,97,97,198,97,97,97,97,97,97,97,97,97,97,97,97,97,97,97,97,97,97,97,97,97,97,97,97,97,97,97,97,97,97,97,97,97,97,97,97,97,97,198,97,198,97,198,97,97,
198,97,198,97,97,97,97,97,97,97,97,97,97,198,97,198,97,97,97,97,97,97,97,97,198,97,97,97,97,97,198,97,198,97,97,97,97,97,97,97,97,97,97,97,97,97,97,97,198,97,97,198,97,97,97,97,97,97,97,97,97,97,97,97,97,97,97,97,97,97,97,97,97,97,97,97,97,97,97,97,97,97,97,97,97,97,97,97,97,97,97,97,97,97,97,97,97,97,97,198,
97,97,97,97,97,97,97,97,97,97,97,97,97,97,97,97,97,198,97,97,97,198,97,97,97,97,97,97,97,97,97,97,97,97,198,97,97,198,97,198,97,97,97,97,97,97,97,97,97,97,97,97,97,97,97,97,97,97,97,97,97,97,97,97,97,97,97,97,97,97,97,97,97,97,97,97,97,97,97,97,97,97,97,97,97,97,97,97,97,97,97,97,97,97,97,97,198,97,97,97,
97,198,97,198,97,97,97,97,97,97,97,97,97,97,97,198,97,97,97,97,97,97,97,198,97,97,97,97,97,97,97,97,198,97,97,97,97,97,97,97,97,97,97,97,97,97,97,198,97,198,97,97,97,97,97,97,97,97,97,97,97,97,97,97,97,97,97,97,97,97,97,97,97,97,97,97,97,97,97,97,97,97,97,97,97,97,97,97,97,97,97,97,97,97,97,97,97,97,198,97,
97,97,97,97,97,97,97,97,97,97,97,97,97,97,97,97,97,198,97,198,97,198,97,97,97,97,97,97,97,97,97,97,97,198,97,198,97,198,97,97,97,97,97,97,97,97,97,97,97,97,97,97,97,97,97,97,97,97,97,97,97,97,97,97,97,97,97,97,97,97,97,97,97,97,97,97,97,97,97,97,97,97,97,97,97,97,97,97,97,97,97,97,97,97,97,97,198,97,97,97,
97,198,97,198,97,198,97,97,97,97,97,97,97,97,97,97,97,97,97,97,97,97,97,97,97,97,97,97,97,97,97,97,97,97,97,97,97,97,97,97,97,97,97,97,97,97,97,198,97,97,97,97,97,97,97,97,97,97,97,97,97,97,97,97,97,97,97,97,97,97,97,97,97,97,97,97,97,97,97,97,97,97,97,97,97,97,97,97,97,97,97,97,97,97,97,97,97,97,97,198,
97,97,97,97,97,97,97,97,97,97,97,97,97,97,97,97,97,97,97,97,97,97,97,97,97,97,97,97,97,97,97,97,97,97,97,97,97,97,97,97,97,97,97,97,97,97,97,97,97,198,97,97,97,97,97,97,97,97,97,97,97,97,97,97,97,97,97,97,97,97,97,97,97,97,97,97,97,97,97,97,97,97,100,97,97,97,97,97,97,97,97,97,97,97,97,97,97,198,97,97,
97,198,97,198,97,97,97,97,97,97,97,97,97,97,97,97,97,97,97,97,97,97,97,97,97,97,97,97,97,97,97,97,97,97,97,97,97,97,97,97,97,97,97,97,97,97,198,97,97,97,97,97,97,97,97,97,198,97,97,97,97,97,97,97,97,97,97,97,97,97,97,97,97,97,97,97,97,97,97,97,97,97,97,97,97,97,97,97,97,97,97,97,97,97,97,97,97,97,97,198,
97,97,97,97,97,97,97,97,97,97,97,97,97,97,97,97,97,97,97,97,97,97,97,97,97,97,97,97,97,97,97,97,97,97,97,97,97,97,97,97,97,97,97,97,97,97,97,97,198,97,97,97,97,97,97,97,97,97,97,97,97,97,97,97,97,97,97,97,97,97,97,97,97,97,97,97,97,97,97,97,97,97,97,97,97,97,97,97,97,97,97,97,97,97,97,97,198,97,97,97,
97,198,97,198,97,198,97,97,97,97,97,97,97,97,97,97,97,97,97,97,97,97,97,97,97,97,97,97,97,97,97,97,97,97,97,97,97,97,97,97,97,97,97,97,97,97,198,97,97,97,97,97,97,97,97,97,97,97,97,97,97,97,97,97,97,97,97,97,97,97,97,97,97,97,97,97,97,97,97,97,97,97,97,97,97,97,97,97,97,97,97,97,97,97,97,97,97,97,97,198,
97,97,97,97,97,97,97,97,97,97,97,97,97,97,198,97,97,97,198,97,97,97,198,97,97,97,97,97,97,97,97,97,97,198,97,97,97,198,97,97,97,97,97,97,97,97,97,97,97,198,97,97,97,97,97,97,97,97,97,97,97,97,97,97,97,198,97,97,97,97,97,97,97,97,97,97,97,97,97,97,97,97,97,97,97,97,97,97,97,97,97,97,97,97,97,97,198,97,97,97,
97,198,97,198,97,198,97,97,97,97,97,97,97,97,97,97,97,97,97,97,97,97,97,97,97,97,97,97,97,97,97,97,97,97,97,97,97,97,97,97,97,97,97,97,97,97,97,198,97,97,97,97,97,97,97,97,97,97,97,97,97,97,97,97,97,97,97,97,97,97,97,97,97,97,97,97,97,97,97,97,97,97,97,97,97,97,97,97,97,97,97,97,97,97,97,97,97,97,198,97,
97,97,97,97,97,97,97,97,97,97,97,97,97,97,97,97,97,97,97,97,97,97,97,97,97,97,97,97,97,97,97,97,97,97,97,97,97,97,97,97,97,97,97,97,97,97,97,97,97,97,97,97,97,97,97,97,97,97,97,97,97,97,97,97,97,97,97,97,97,97,97,97,97,97,97,97,97,198,97,97,97,97,97,97,97,97,97,97,97,97,97,97,97,97,97,198,97,97,97,97,
198,97,198,97,198,97,198,97,97,97,97,97,97,97,97,198,97,97,97,97,97,97,97,97,198,97,97,97,97,97,198,97,97,97,97,97,97,97,97,198,97,97,97,97,97,97,97,97,198,97,198,97,97,97,97,97,97,97,97,97,97,97,97,97,97,97,97,97,97,97,97,97,97,97,97,97,97,97,97,97,97,97,97,97,97,97,97,97,97,97,97,97,97,97,97,97,97,198,97,97,
97,97,97,97,97,97,97,97,97,97,97,97,97,97,97,97,97,97,97,97,97,97,97,97,97,97,97,97,97,97,97,97,97,97,97,97,97,97,97,97,97,97,97,97,97,97,97,97,97,97,97,97,97,97,97,97,97,97,97,97,97,97,97,97,97,97,97,97,97,97,97,97,97,97,198,97,97,97,97,97,97,97,97,97,97,97,97,97,97,97,97,97,97,198,97,198,97,97,97,198,
198,97,198,97,198,97,198,97,198,97,97,97,97,97,97,97,97,97,97,97,97,97,97,97,97,97,97,198,97,97,97,97,97,97,97,97,97,97,97,97,97,97,97,97,97,97,97,97,198,97,97,198,97,97,97,97,97,97,97,97,97,97,97,97,97,97,97,97,97,97,97,97,97,97,97,97,97,97,97,97,97,97,97,97,97,97,97,97,97,97,97,97,97,97,97,97,97,198,97,97,
97,97,97,97,97,97,97,97,97,97,97,97,97,97,97,97,97,97,97,198,97,97,97,97,97,97,97,97,97,97,97,97,97,97,97,97,97,97,97,97,97,97,97,97,97,97,97,97,97,97,97,97,97,97,97,97,97,97,97,97,97,198,97,97,97,97,97,97,97,97,97,97,97,97,198,97,97,97,97,97,97,97,97,97,97,97,97,97,97,97,97,97,198,97,198,97,97,97,97,198,
97,97,198,97,198,97,198,97,198,97,198,97,97,97,97,97,97,97,97,97,97,97,97,97,97,97,97,97,97,97,97,97,97,97,97,198,97,97,97,97,97,198,97,97,97,97,97,97,97,198,97,97,198,97,97,97,97,97,97,97,97,97,97,97,97,97,97,97,97,97,97,97,97,97,97,97,97,97,97,97,97,97,97,97,198,97,97,97,97,97,97,97,97,97,97,97,97,97,97,97,
97,97,97,97,97,97,97,97,97,97,97,97,97,97,97,97,97,97,97,97,97,97,97,97,97,97,97,97,97,97,97,97,97,97,97,97,97,97,97,97,97,97,97,97,97,97,97,97,97,97,97,97,97,97,97,97,97,97,97,97,97,97,97,97,97,97,97,97,97,97,97,97,97,97,97,198,97,97,97,97,97,97,97,97,97,97,97,97,97,97,97,97,198,97,198,97,97,97,97,198,
198,97,198,97,198,97,97,97,198,97,97,97,97,97,97,97,97,97,97,97,97,97,198,97,97,97,97,97,97,97,198,97,97,97,97,97,97,97,97,97,97,97,97,97,97,97,97,97,97,97,97,97,97,97,97,97,97,97,97,97,97,97,97,97,97,97,97,97,97,97,97,97,97,97,97,97,97,97,97,97,97,97,97,97,97,97,97,97,97,97,97,97,97,97,97,97,97,97,97,97,
97,97,97,97,97,97,97,97,97,97,97,97,97,97,97,97,97,97,97,97,97,97,97,97,97,97,97,97,97,97,97,97,97,97,97,97,97,97,97,97,97,97,97,198,97,97,97,97,97,97,97,97,97,97,97,97,97,97,97,97,97,97,97,97,97,97,97,97,97,198,97,97,97,97,97,97,198,97,97,97,97,97,97,97,97,97,97,97,97,97,97,97,97,198,97,97,97,97,97,198,
198,97,97,97,97,97,97,97,97,97,97,97,97,97,97,97,97,97,97,97,97,97,97,97,97,97,97,97,97,97,97,97,97,97,97,97,97,97,97,97,97,97,97,97,97,97,97,97,97,97,97,97,97,97,97,97,97,97,97,97,97,97,97,97,97,97,97,97,97,97,97,97,97,97,97,97,97,97,97,97,97,97,97,198,97,97,97,97,97,97,97,198,97,97,97,97,97,97,97,97,
97,97,198,97,97,97,97,97,97,97,97,97,97,97,97,198,97,97,97,97,97,97,97,97,97,198,97,97,97,97,97,97,97,97,97,97,97,97,198,97,97,97,97,97,97,97,97,97,97,97,97,97,97,97,97,97,97,97,97,97,97,97,97,97,97,97,97,97,97,97,97,97,97,97,97,97,97,97,198,97,97,198,97,97,97,97,97,97,97,97,97,97,97,97,97,97,97,198,97,198,
198,97,97,97,97,97,97,97,97,97,97,97,97,97,97,97,97,198,97,97,97,97,97,97,97,97,97,97,97,97,97,97,97,198,97,97,97,97,97,97,97,97,97,97,97,97,97,97,97,97,97,97,97,97,97,97,97,97,97,97,97,97,97,97,97,97,97,97,97,97,97,97,97,97,97,97,97,97,97,97,97,97,97,97,97,97,97,97,97,97,198,97,97,97,97,97,97,97,97,97,
97,97,97,97,97,97,97,97,97,97,97,97,97,97,97,198,97,97,97,97,97,97,97,97,97,97,97,97,97,97,97,97,97,97,97,97,97,97,97,97,97,97,97,97,97,97,97,97,97,97,97,97,97,97,97,97,97,97,198,97,97,97,97,97,97,97,97,97,97,97,97,97,97,97,97,97,97,97,97,97,198,97,97,97,97,97,97,97,97,97,97,97,97,97,97,97,97,97,97,198,
198,97,97,97,97,97,97,97,97,97,97,97,97,97,97,97,97,198,97,198,97,97,97,97,97,97,97,97,97,97,97,97,97,97,97,97,97,97,97,97,97,97,97,97,198,97,97,97,97,97,198,97,97,97,97,97,97,97,97,97,97,97,97,97,97,97,97,97,97,97,97,97,97,97,97,97,97,97,97,198,97,97,97,97,97,97,97,97,198,97,198,97,97,97,97,97,97,97,97,97,
97,97,97,97,97,97,97,198,97,97,97,97,97,97,97,97,97,97,97,97,97,97,97,97,97,97,97,97,97,97,97,97,97,97,97,97,97,97,97,97,97,97,97,97,97,97,97,97,97,97,97,97,97,97,97,97,97,97,97,97,97,97,97,97,97,97,97,97,97,97,97,97,97,97,97,97,97,97,97,97,97,97,97,97,97,97,97,97,97,97,97,97,97,97,97,97,97,198,97,198,
97,198,97,97,97,97,97,97,97,97,97,97,97,97,97,97,97,97,97,198,97,198,97,97,97,97,97,97,97,97,198,97,97,97,97,97,97,97,97,97,97,97,97,97,97,97,97,97,97,97,198,97,97,97,97,97,97,97,97,97,97,97,97,97,97,97,97,97,198,97,198,97,97,97,97,97,97,97,198,97,97,97,97,97,97,97,97,198,97,198,97,97,97,97,97,97,97,97,97,97,
97,97,97,97,97,97,97,97,97,97,97,97,97,97,97,97,97,97,97,97,97,97,97,97,97,97,97,97,97,97,97,97,97,97,97,97,97,97,97,198,97,97,97,97,97,97,97,97,97,97,97,97,97,97,97,97,97,97,97,97,97,97,97,97,97,97,97,97,97,97,97,97,198,97,97,97,198,97,97,97,97,97,97,97,97,97,97,97,97,97,97,97,97,97,97,97,97,97,97,198,
198,97,97,97,97,97,97,97,97,97,97,97,97,97,97,97,97,97,97,198,97,198,97,97,97,97,97,97,97,97,97,97,198,97,97,97,97,97,97,97,97,97,97,97,97,97,97,97,97,97,198,97,198,97,97,97,97,97,97,97,97,97,97,97,97,97,198,97,97,97,97,97,97,97,198,97,97,97,97,97,97,97,97,97,97,97,198,97,198,97,97,97,97,97,97,97,97,97,97,97,
97,97,97,97,97,97,97,97,97,97,97,97,97,97,97,97,97,97,97,97,97,97,97,97,97,97,97,97,97,97,97,97,97,97,97,97,97,97,97,97,97,97,97,97,198,97,97,97,97,97,97,97,97,97,97,97,97,97,97,97,97,97,198,97,198,97,97,97,97,97,97,97,97,97,97,97,97,97,97,97,97,97,97,97,97,97,97,97,97,97,97,97,97,97,97,97,97,97,97,198,
198,97,198,97,97,97,97,97,97,97,97,97,97,97,97,97,97,97,97,97,97,97,198,97,97,97,97,97,97,97,97,97,97,97,198,97,97,97,97,97,97,97,97,97,97,97,97,97,97,97,97,198,97,198,97,97,97,97,198,97,97,97,97,97,97,97,97,97,97,97,97,97,97,97,97,97,97,97,97,97,97,97,97,97,97,97,198,97,97,97,97,97,97,97,97,97,97,97,97,97,
97,97,97,97,97,97,97,97,97,97,97,97,97,97,97,198,97,97,97,97,97,97,97,97,97,97,97,97,97,97,97,97,97,97,97,97,97,97,97,97,97,97,97,97,97,97,97,97,97,97,97,97,97,97,97,198,97,97,97,97,198,97,97,198,97,97,97,97,97,97,97,97,97,97,97,97,97,97,97,97,97,97,97,97,97,97,97,97,198,97,97,97,97,97,97,97,97,198,97,198,
97,198,97,97,97,97,97,97,97,100,97,97,97,97,97,97,97,97,97,97,97,97,198,97,97,97,97,97,97,97,97,97,97,198,97,97,198,97,97,97,97,97,97,97,97,97,97,97,97,97,198,97,198,97,97,97,97,198,97,97,97,97,198,97,97,97,97,97,97,97,97,97,97,97,97,97,97,97,97,97,97,97,97,97,97,198,97,97,97,97,97,97,97,97,97,97,97,97,97,97,
97,97,97,97,97,97,97,97,97,97,97,97,97,97,97,97,97,97,97,97,97,97,97,97,97,97,97,97,97,97,97,198,97,97,97,97,97,97,97,97,97,97,97,97,97,97,97,97,97,97,97,97,97,97,198,97,97,97,97,198,97,97,97,97,97,97,97,97,97,97,97,97,97,97,97,97,97,97,97,97,97,97,97,97,97,97,97,198,97,97,97,97,97,97,97,97,97,97,198,97,
198,97,97,97,97,97,97,97,97,97,97,97,97,97,97,97,97,97,97,97,97,97,198,97,97,97,97,97,97,198,97,97,97,97,198,97,97,198,97,97,97,97,97,97,198,97,97,97,97,97,198,97,198,97,97,97,198,97,97,97,97,97,97,97,97,97,97,97,97,97,97,97,97,97,97,97,97,97,97,97,97,97,97,97,97,97,97,97,97,97,97,97,97,97,97,97,97,97,97,97,
97,97,198,97,97,97,97,97,97,97,97,97,97,97,97,97,97,97,97,97,97,97,97,97,97,97,97,97,97,97,97,97,198,97,97,97,97,97,97,97,97,97,97,97,97,97,97,97,97,97,97,97,97,97,198,97,97,97,97,97,97,97,97,97,97,97,97,97,97,97,97,97,97,97,97,97,97,97,97,97,97,97,97,97,97,97,97,97,198,97,97,97,97,97,97,97,97,97,97,198,
198,97,97,97,97,97,97,97,97,97,97,97,97,198,97,97,97,97,97,97,198,97,97,97,97,97,97,97,97,97,97,97,97,97,97,97,97,97,97,97,97,198,97,97,97,97,97,97,97,97,97,97,198,97,97,97,97,97,97,97,97,97,97,97,97,97,97,97,97,97,97,97,97,198,97,97,97,97,97,97,97,97,97,97,97,97,97,97,97,97,97,97,97,97,97,97,97,97,97,97,
97,97,198,97,198,97,97,97,97,97,97,97,97,97,97,97,97,97,198,97,97,97,97,97,97,97,97,97,97,97,97,97,97,97,97,97,97,97,97,97,97,97,97,97,97,97,97,97,97,97,97,97,97,97,97,97,97,97,97,97,97,97,97,97,97,97,97,97,97,97,97,97,97,97,97,97,97,97,198,97,97,97,97,97,97,97,97,97,97,97,97,97,97,97,97,97,97,97,97,198,
198,97,97,97,97,97,97,97,97,97,97,97,198,97,198,97,97,97,97,97,97,97,97,97,97,97,97,97,97,97,97,97,97,97,97,97,97,97,97,97,97,97,97,97,97,97,97,97,97,97,97,97,97,97,97,97,97,97,97,97,97,97,97,97,97,97,97,198,97,97,97,97,97,97,97,97,97,97,97,97,198,97,97,97,97,97,97,97,97,97,97,97,97,97,97,97,97,97,97,97,
97,97,97,97,97,97,97,97,97,97,97,97,97,97,97,97,198,97,97,97,97,97,97,97,97,97,97,97,97,97,97,97,97,97,97,97,97,97,97,97,97,97,97,97,97,97,97,97,97,97,97,97,97,97,97,97,97,97,97,97,97,97,97,97,97,97,97,97,97,97,97,97,97,97,97,97,97,97,97,97,97,97,97,97,97,97,97,97,97,97,97,97,97,97,97,97,97,97,198,97,
97,198,97,97,97,97,97,97,97,97,198,97,97,97,198,97,97,97,97,97,97,97,97,97,97,97,97,97,97,97,97,97,97,97,97,97,97,97,97,97,97,97,97,97,97,97,97,100,97,97,97,97,97,97,97,97,97,97,97,97,97,97,198,97,97,97,97,97,97,97,97,97,97,97,97,97,97,97,97,97,198,97,97,97,97,97,97,97,97,97,97,97,97,97,97,97,97,97,97,97,
97,198,97,97,97,97,97,97,97,97,97,97,97,97,97,97,97,97,97,97,97,97,97,97,97,198,97,97,97,97,97,97,97,97,97,97,97,97,97,97,97,97,97,97,97,97,97,97,97,97,97,97,97,97,97,97,97,97,97,97,97,97,97,97,97,97,97,97,97,97,97,97,97,97,97,97,97,97,97,97,97,97,97,97,97,97,97,97,97,97,97,97,97,97,97,198,97,198,97,198,
97,97,97,97,97,97,97,97,97,97,198,97,198,97,97,97,97,97,97,97,97,97,97,97,97,97,97,97,97,97,97,97,198,97,97,97,97,97,97,97,97,198,97,97,97,97,97,97,97,97,97,97,97,97,97,97,97,97,97,97,97,97,97,97,97,97,97,97,97,97,97,97,97,97,97,97,97,97,198,97,198,97,97,97,97,97,97,97,97,97,97,97,97,198,97,97,97,97,97,97,
97,198,97,198,97,97,97,97,198,97,97,97,97,97,97,97,97,97,97,97,97,97,97,198,97,97,97,97,97,97,97,97,97,97,97,97,97,97,97,97,198,97,97,198,97,198,97,198,97,97,97,97,97,97,97,97,97,97,97,97,97,97,97,97,97,97,97,97,97,97,97,97,97,97,97,97,97,97,97,97,97,97,97,97,97,97,97,97,97,97,97,97,97,97,97,198,97,198,97,198,
97,97,97,97,97,97,97,97,97,97,97,97,97,97,97,97,97,97,97,97,97,97,97,97,97,97,97,97,97,97,97,97,198,97,97,97,97,97,198,97,97,97,97,97,97,97,97,97,97,198,97,97,97,97,97,97,97,97,97,97,97,97,97,97,97,97,97,97,97,97,97,97,97,97,97,97,198,97,198,97,198,97,97,97,97,97,97,97,97,97,97,97,97,97,97,97,97,97,97,97,
97,198,97,198,97,97,198,97,97,97,97,97,97,97,97,97,97,97,97,97,97,198,97,97,97,97,97,97,97,97,97,97,97,97,198,97,198,97,97,97,97,198,97,97,97,97,97,198,97,97,97,198,97,97,97,97,97,97,97,97,97,97,97,198,97,97,198,97,198,97,198,97,97,97,97,97,97,97,97,97,97,97,97,97,97,97,97,97,97,198,97,97,97,97,97,198,97,198,97,198,
97,97,97,97,97,97,97,97,97,97,97,97,97,97,97,97,97,97,97,97,97,97,97,198,97,97,97,97,97,97,97,97,97,97,97,97,97,97,97,97,97,97,97,97,97,97,97,97,97,198,97,97,97,97,97,97,97,97,97,97,97,97,97,97,97,97,97,97,97,97,97,97,198,97,198,97,97,198,97,97,97,198,97,97,97,97,97,97,97,97,97,97,97,97,97,97,97,97,97,97,
97,198,97,198,97,198,97,97,97,97,97,97,97,97,97,97,97,97,97,97,97,97,97,97,97,97,97,97,97,97,97,97,97,97,97,97,97,97,97,97,97,97,97,97,97,97,97,97,97,97,97,198,97,97,97,97,97,97,97,97,97,97,97,97,97,97,97,97,97,97,97,97,97,97,97,97,97,97,97,97,97,97,97,97,97,97,97,97,198,97,97,198,97,97,97,97,97,198,97,198,
97,97,97,97,97,97,97,97,97,97,97,97,97,97,97,97,97,97,97,97,97,97,97,97,97,198,97,97,97,97,97,97,97,97,97,97,97,97,97,97,97,97,97,97,97,97,97,97,97,198,97,97,97,97,97,97,97,97,97,97,97,97,97,97,97,97,97,97,97,97,97,97,97,97,97,97,198,97,97,97,198,97,97,97,97,97,97,97,97,97,97,97,97,97,97,97,97,97,97,97,
97,97,198,97,198,97,97,97,97,97,97,97,97,97,97,97,97,97,97,97,97,97,97,97,97,97,97,198,97,97,97,97,97,97,97,97,97,97,97,97,97,97,97,97,97,97,97,198,97,97,97,97,97,97,97,97,97,97,97,97,97,97,97,97,97,97,97,97,97,97,97,97,97,97,97,97,97,97,97,97,97,97,97,97,97,97,97,97,97,198,97,97,97,97,97,97,97,97,97,198,
97,97,97,97,97,97,97,97,97,97,97,97,97,97,97,97,97,97,97,97,97,97,97,97,97,97,97,97,97,198,97,97,97,97,97,97,97,97,97,97,97,198,97,97,97,97,97,97,198,97,97,97,97,97,97,97,97,97,97,97,97,97,97,97,97,97,97,97,97,97,97,97,97,97,97,97,97,97,198,97,97,97,198,97,97,97,97,97,97,97,97,97,97,97,97,97,97,97,97,97,
198,97,198,97,198,97,97,97,97,97,97,97,97,97,97,97,97,97,97,97,97,97,97,97,97,97,198,97,97,97,97,198,97,97,97,97,97,97,97,97,97,97,97,198,97,97,198,97,97,97,97,97,97,97,97,97,97,97,97,97,97,97,97,97,97,97,97,97,97,97,97,97,97,97,97,97,97,97,97,97,97,97,97,97,97,97,97,97,97,97,97,97,97,97,97,97,97,97,97,198,
97,97,97,97,97,97,97,97,97,97,97,97,97,97,97,97,97,97,97,97,97,97,97,97,97,97,97,97,198,97,97,97,97,97,97,97,97,97,198,97,198,97,97,97,97,198,97,97,97,97,97,97,97,97,97,97,97,97,97,97,97,97,97,97,97,97,97,97,97,97,97,97,97,97,97,97,97,97,97,97,97,97,97,97,97,97,97,97,97,97,97,97,97,97,97,97,97,97,97,97,
97,198,97,198,97,198,97,97,97,97,97,97,97,97,97,97,97,97,97,97,97,97,97,97,97,97,97,97,97,97,198,97,198,97,97,97,97,97,97,97,97,97,198,97,97,97,97,97,97,97,97,97,97,97,97,97,97,97,97,97,97,97,97,97,97,97,97,97,97,97,97,97,97,97,97,97,97,97,97,97,97,97,97,97,97,97,97,97,97,97,97,97,97,97,97,97,97,97,97,198,
97,97,97,97,97,97,97,97,97,97,97,97,97,97,97,97,97,97,97,97,97,97,97,97,97,97,97,97,97,97,97,97,97,97,198,97,198,97,198,97,198,97,97,97,198,97,97,97,97,97,97,97,97,97,97,97,97,97,97,97,97,97,97,97,198,97,97,97,97,97,97,97,97,97,97,97,97,97,97,97,97,97,97,97,97,97,97,97,97,97,97,97,97,97,97,100,97,97,97,97,
97,198,97,198,97,198,97,198,97,97,97,97,97,97,97,97,97,97,97,97,97,97,97,97,97,97,97,97,97,97,97,97,97,97,97,97,97,97,97,97,97,97,198,97,97,97,97,97,97,97,97,97,97,97,97,97,97,198,97,97,97,97,97,97,97,97,97,97,97,97,97,97,97,97,198,97,97,97,97,97,198,97,97,97,97,97,97,97,97,97,97,97,97,97,97,97,97,97,97,198,
97,97,97,97,97,97,97,97,97,97,97,97,97,97,97,97,97,97,97,97,97,97,97,97,97,97,97,97,97,97,97,97,97,97,97,97,97,97,97,97,97,97,97,97,97,97,97,97,97,97,97,97,97,97,97,97,97,97,97,97,97,97,97,97,198,97,97,97,97,97,97,97,198,97,97,97,198,97,198,97,97,97,97,97,97,97,97,97,97,97,97,97,97,97,97,97,97,97,97,97,
97,198,97,198,97,198,97,198,97,198,97,97,97,97,97,97,97,97,97,97,97,97,97,97,97,97,97,97,97,97,97,97,97,97,97,97,97,97,97,97,97,97,97,97,97,97,97,97,97,97,97,97,97,97,97,198,97,97,198,97,97,97,97,97,97,97,97,97,97,97,198,97,97,97,198,97,97,97,97,97,198,97,198,97,97,97,97,97,97,97,97,97,97,97,97,97,97,97,97,198,
97,97,97,97,97,97,97,97,97,97,97,97,97,97,97,97,97,97,97,97,97,97,97,97,97,97,97,97,97,97,97,97,97,97,97,97,97,97,97,97,97,97,97,97,97,97,97,97,97,97,97,97,97,97,198,97,97,97,97,97,198,97,97,97,198,97,97,97,97,97,97,97,198,97,97,97,198,97,198,97,198,97,97,97,97,97,97,97,97,97,97,97,97,97,97,97,97,97,97,97,
97,198,97,198,97,198,97,198,97,198,97,198,97,198,97,198,97,97,97,97,97,97,97,97,97,97,97,97,97,97,97,97,97,97,97,97,97,97,97,97,97,97,97,97,97,97,97,97,97,97,97,97,97,97,97,97,97,198,97,97,97,97,97,97,97,97,97,97,198,97,198,97,97,97,198,97,97,97,97,97,97,97,198,97,198,97,198,97,97,97,97,97,97,97,97,97,97,198,97,198,
97,97,97,97,97,97,97,97,97,97,97,97,97,97,97,97,97,97,97,97,97,97,97,97,97,198,97,97,97,97,97,97,97,97,97,97,97,97,97,97,97,97,97,97,97,97,97,97,97,97,97,97,97,198,97,97,97,97,97,198,97,97,198,97,198,97,198,97,97,97,97,97,198,97,97,97,198,97,198,97,198,97,97,97,97,97,97,97,97,97,97,97,97,97,97,97,97,97,97,97,
97,198,97,198,97,198,97,198,97,198,97,198,97,198,97,198,97,198,97,198,97,198,97,198,97,97,97,97,97,97,97,198,97,198,97,198,97,198,97,97,97,97,97,97,97,97,97,97,97,198,97,198,97,97,97,198,97,97,97,97,97,97,97,97,97,97,97,97,198,97,97,97,97,97,198,97,97,97,97,97,97,97,198,97,198,97,198,97,198,97,198,97,198,97,198,97,198,97,97,198,
97,97,97,97,97,97,97,97,97,97,97,97,97,97,97,97,97,97,97,97,97,97,97,97,97,198,97,198,97,198,97,97,97,97,97,97,97,97,97,198,97,198,97,198,97,198,97,198,97,97,97,97,97,198,97,97,97,198,97,97,198,97,97,198,97,97,198,97,97,97,198,97,198,97,97,97,198,97,198,97,198,97,97,97,97,97,97,97,97,97,97,97,97,97,97,97,97,97,97,97
</data>
 </layer>
</map>
